static/img/kroki/733d621a96e2e610725dd985262189f0.svg

<?xml version="1.0" encoding="us-ascii" standalone="no"?><svg xmlns="http://www.w3.org/2000/svg" xmlns:xlink="http://www.w3.org/1999/xlink" contentStyleType="text/css" height="732px" preserveAspectRatio="none" style="width:253px;height:732px;" version="1.1" viewBox="0 0 253 732" width="253px" zoomAndPan="magnify"><defs/><g><!--class kubernetes_csi_driver--><g id="elem_kubernetes_csi_driver"><rect codeLine="22" fill="#3D176E" height="39.7891" id="kubernetes_csi_driver" rx="2.5" ry="2.5" style="stroke:#000D19;stroke-width:0.5;" width="224" x="14.5" y="686.44"/><ellipse cx="29.5" cy="706.3345" fill="#ADD1B2" rx="11" ry="11" style="stroke:#181818;stroke-width:1.0;"/><path d="M32.4688,711.9752 Q31.8906,712.272 31.25,712.4127 Q30.6094,712.5689 29.9063,712.5689 Q27.4063,712.5689 26.0781,710.9283 Q24.7656,709.272 24.7656,706.147 Q24.7656,703.022 26.0781,701.3658 Q27.4063,699.7095 29.9063,699.7095 Q30.6094,699.7095 31.25,699.8658 Q31.9063,700.022 32.4688,700.3189 L32.4688,703.0377 Q31.8438,702.4595 31.25,702.1939 Q30.6563,701.9127 30.0313,701.9127 Q28.6875,701.9127 28,702.9908 Q27.3125,704.0533 27.3125,706.147 Q27.3125,708.2408 28,709.3189 Q28.6875,710.3814 30.0313,710.3814 Q30.6563,710.3814 31.25,710.1158 Q31.8438,709.8345 32.4688,709.2564 L32.4688,711.9752 Z " fill="#000000"/><text fill="#D9B8FF" font-family="Helvetica" font-size="17" lengthAdjust="spacing" textLength="182" x="48.5" y="712.2198">kubernetes_csi_driver</text></g><!--class kubernetes_resource--><g id="elem_kubernetes_resource"><rect codeLine="24" fill="#3D176E" height="126.6797" id="kubernetes_resource" rx="2.5" ry="2.5" style="stroke:#000D19;stroke-width:0.5;" width="239" x="7" y="438.76"/><ellipse cx="32.35" cy="458.6545" fill="#ADD1B2" rx="11" ry="11" style="stroke:#181818;stroke-width:1.0;"/><path d="M35.3188,464.2952 Q34.7406,464.592 34.1,464.7327 Q33.4594,464.8889 32.7563,464.8889 Q30.2563,464.8889 28.9281,463.2483 Q27.6156,461.592 27.6156,458.467 Q27.6156,455.342 28.9281,453.6858 Q30.2563,452.0295 32.7563,452.0295 Q33.4594,452.0295 34.1,452.1858 Q34.7563,452.342 35.3188,452.6389 L35.3188,455.3577 Q34.6938,454.7795 34.1,454.5139 Q33.5063,454.2327 32.8813,454.2327 Q31.5375,454.2327 30.85,455.3108 Q30.1625,456.3733 30.1625,458.467 Q30.1625,460.5608 30.85,461.6389 Q31.5375,462.7014 32.8813,462.7014 Q33.5063,462.7014 34.1,462.4358 Q34.6938,462.1545 35.3188,461.5764 L35.3188,464.2952 Z " fill="#000000"/><text fill="#D9B8FF" font-family="Helvetica" font-size="17" lengthAdjust="spacing" textLength="174" x="53.65" y="464.5398">kubernetes_resource</text><line style="stroke:#000D19;stroke-width:0.5;" x1="8" x2="245" y1="478.5491" y2="478.5491"/><text fill="#D9B8FF" font-family="sans-serif" font-size="14" font-weight="bold" lengthAdjust="spacing" textLength="46" x="18" y="500.5442">labels</text><text fill="#D9B8FF" font-family="sans-serif" font-size="14" lengthAdjust="spacing" textLength="171" x="64" y="500.5442">: dictionary[string, string]</text><text fill="#D9B8FF" font-family="sans-serif" font-size="14" font-weight="bold" lengthAdjust="spacing" textLength="90" x="18" y="526.8411">namespace</text><text fill="#D9B8FF" font-family="sans-serif" font-size="14" lengthAdjust="spacing" textLength="48" x="108" y="526.8411">: string</text><text fill="#D9B8FF" font-family="sans-serif" font-size="14" font-weight="bold" lengthAdjust="spacing" textLength="138" x="18" y="553.1379">resource_version</text><text fill="#D9B8FF" font-family="sans-serif" font-size="14" lengthAdjust="spacing" textLength="48" x="156" y="553.1379">: string</text></g><!--class resource--><g id="elem_resource"><rect codeLine="29" fill="#3D176E" height="310.7578" id="resource" rx="2.5" ry="2.5" style="stroke:#000D19;stroke-width:0.5;" width="227" x="13" y="7"/><ellipse cx="81.75" cy="26.8945" fill="#ADD1B2" rx="11" ry="11" style="stroke:#181818;stroke-width:1.0;"/><path d="M84.7188,32.5352 Q84.1406,32.832 83.5,32.9727 Q82.8594,33.1289 82.1563,33.1289 Q79.6563,33.1289 78.3281,31.4883 Q77.0156,29.832 77.0156,26.707 Q77.0156,23.582 78.3281,21.9258 Q79.6563,20.2695 82.1563,20.2695 Q82.8594,20.2695 83.5,20.4258 Q84.1563,20.582 84.7188,20.8789 L84.7188,23.5977 Q84.0938,23.0195 83.5,22.7539 Q82.9063,22.4727 82.2813,22.4727 Q80.9375,22.4727 80.25,23.5508 Q79.5625,24.6133 79.5625,26.707 Q79.5625,28.8008 80.25,29.8789 Q80.9375,30.9414 82.2813,30.9414 Q82.9063,30.9414 83.5,30.6758 Q84.0938,30.3945 84.7188,29.8164 L84.7188,32.5352 Z " fill="#000000"/><text fill="#D9B8FF" font-family="Helvetica" font-size="17" lengthAdjust="spacing" textLength="71" x="107.25" y="32.7798">resource</text><line style="stroke:#000D19;stroke-width:0.5;" x1="14" x2="239" y1="46.7891" y2="46.7891"/><text fill="#D9B8FF" font-family="sans-serif" font-size="14" font-weight="bold" lengthAdjust="spacing" textLength="29" x="24" y="68.7842">age</text><text fill="#D9B8FF" font-family="sans-serif" font-size="14" lengthAdjust="spacing" textLength="66" x="53" y="68.7842">: duration</text><text fill="#D9B8FF" font-family="sans-serif" font-size="14" font-weight="bold" lengthAdjust="spacing" textLength="43" x="24" y="95.0811">atime</text><text fill="#D9B8FF" font-family="sans-serif" font-size="14" lengthAdjust="spacing" textLength="70" x="67" y="95.0811">: datetime</text><text fill="#D9B8FF" font-family="sans-serif" font-size="14" font-weight="bold" lengthAdjust="spacing" textLength="43" x="24" y="121.3779">ctime</text><text fill="#D9B8FF" font-family="sans-serif" font-size="14" lengthAdjust="spacing" textLength="70" x="67" y="121.3779">: datetime</text><text fill="#D9B8FF" font-family="sans-serif" font-size="14" font-weight="bold" lengthAdjust="spacing" textLength="14" x="24" y="147.6748">id</text><text fill="#D9B8FF" font-family="sans-serif" font-size="14" lengthAdjust="spacing" textLength="48" x="38" y="147.6748">: string</text><text fill="#D9B8FF" font-family="sans-serif" font-size="14" font-weight="bold" lengthAdjust="spacing" textLength="33" x="24" y="173.9717">kind</text><text fill="#D9B8FF" font-family="sans-serif" font-size="14" lengthAdjust="spacing" textLength="48" x="57" y="173.9717">: string</text><text fill="#D9B8FF" font-family="sans-serif" font-size="14" font-weight="bold" lengthAdjust="spacing" textLength="90" x="24" y="200.2686">last_access</text><text fill="#D9B8FF" font-family="sans-serif" font-size="14" lengthAdjust="spacing" textLength="66" x="114" y="200.2686">: duration</text><text fill="#D9B8FF" font-family="sans-serif" font-size="14" font-weight="bold" lengthAdjust="spacing" textLength="90" x="24" y="226.5654">last_update</text><text fill="#D9B8FF" font-family="sans-serif" font-size="14" lengthAdjust="spacing" textLength="66" x="114" y="226.5654">: duration</text><text fill="#D9B8FF" font-family="sans-serif" font-size="14" font-weight="bold" lengthAdjust="spacing" textLength="48" x="24" y="252.8623">mtime</text><text fill="#D9B8FF" font-family="sans-serif" font-size="14" lengthAdjust="spacing" textLength="70" x="72" y="252.8623">: datetime</text><text fill="#D9B8FF" font-family="sans-serif" font-size="14" font-weight="bold" lengthAdjust="spacing" textLength="43" x="24" y="279.1592">name</text><text fill="#D9B8FF" font-family="sans-serif" font-size="14" lengthAdjust="spacing" textLength="48" x="67" y="279.1592">: string</text><text fill="#D9B8FF" font-family="sans-serif" font-size="14" font-weight="bold" lengthAdjust="spacing" textLength="34" x="24" y="305.4561">tags</text><text fill="#D9B8FF" font-family="sans-serif" font-size="14" lengthAdjust="spacing" textLength="171" x="58" y="305.4561">: dictionary[string, string]</text></g><!--reverse link kubernetes_resource to kubernetes_csi_driver--><g id="link_kubernetes_resource_kubernetes_csi_driver"><path codeLine="41" d="M126.5,586.56 C126.5,623.36 126.5,663.39 126.5,686.31 " fill="none" id="kubernetes_resource-backto-kubernetes_csi_driver" style="stroke:#FFAF37;stroke-width:2.0;"/><polygon fill="none" points="119.5,586.7,126.5,566.7,133.5,586.7,119.5,586.7" style="stroke:#FFAF37;stroke-width:2.0;"/></g><!--reverse link resource to kubernetes_resource--><g id="link_resource_kubernetes_resource"><path codeLine="42" d="M126.5,338.9 C126.5,374.57 126.5,409.83 126.5,438.32 " fill="none" id="resource-backto-kubernetes_resource" style="stroke:#FFAF37;stroke-width:2.0;"/><polygon fill="none" points="119.5,338.91,126.5,318.91,133.5,338.91,119.5,338.91" style="stroke:#FFAF37;stroke-width:2.0;"/></g><!--SRC=[XPDFJm8n4CNlV8ecteWa8570U44IenTYn9inP6XdbuRTband8QXyTrjMpFu3JhjvxzTvCxFTfLOeC5tpJgIOBf1SowsqMGD1AiP4TZknYILn5KKGzGTLyyaQlWXC8KNnZCa6MKke4kzBBLS6dHCt1UiHv2eccncLbsS2uxo5XWlK907dnioa5nbZeHarMWoZg4fMYrxrLMzmXpNCaaBwGxhThkgDgiZ5gBDp_nCp_OMYLrpQr3BMsgn57AYpNGQYq6HjqAD_iiTNK4gRMDmMjBUy9p989Nss16MtWOuWSSKOnqXeURV6IMqg70rLD6Y4Nqx1CcnEh39_KGqokhbqUgv8Rtn7twrztITqDYE9tcst4rXWujhjUw6qP6qDqEx3-TjZuckHFpyzPlnE_5sJ6CXSzkgnqjndEN-sO1vpIs4G7ywhZ2141OLrccl06Dwz9XiqhKh1VZzbmMVn7AJq_qmbuU1awr2hugGDEM7EKc66-D9szgscvJxyT3gTvi_IEWqTdLy0]--></g></svg>

<svg xmlns="http://www.w3.org/2000/svg" width="253" height="732" preserveAspectRatio="none" style="width:253px;height:732px"><rect width="224" height="39.789" x="14.5" y="686.44" fill="#3D176E" rx="2.5" ry="2.5" style="stroke:#000d19;stroke-width:.5"/><circle cx="29.5" cy="706.335" r="11" fill="#ADD1B2" style="stroke:#181818;stroke-width:1"/><path d="M32.469 711.975q-.578.297-1.219.438-.64.156-1.344.156-2.5 0-3.828-1.64-1.312-1.657-1.312-4.782t1.312-4.781q1.328-1.656 3.828-1.656.703 0 1.344.156.656.156 1.219.453v2.719q-.625-.578-1.219-.844-.594-.281-1.219-.281-1.343 0-2.031 1.078-.688 1.062-.688 3.156 0 2.094.688 3.172.688 1.062 2.031 1.062.625 0 1.219-.265.594-.281 1.219-.86v2.72Z"/><text x="48.5" y="712.22" fill="#D9B8FF" font-family="Helvetica" font-size="17" textLength="182">kubernetes_csi_driver</text><rect width="239" height="126.68" x="7" y="438.76" fill="#3D176E" rx="2.5" ry="2.5" style="stroke:#000d19;stroke-width:.5"/><circle cx="32.35" cy="458.654" r="11" fill="#ADD1B2" style="stroke:#181818;stroke-width:1"/><path d="M35.319 464.295q-.578.297-1.219.438-.64.156-1.344.156-2.5 0-3.828-1.64-1.312-1.657-1.312-4.782t1.312-4.781q1.328-1.656 3.828-1.656.703 0 1.344.156.656.156 1.219.453v2.719q-.625-.579-1.219-.844-.594-.281-1.219-.281-1.343 0-2.031 1.078-.688 1.062-.688 3.156 0 2.094.688 3.172.688 1.062 2.031 1.062.625 0 1.219-.265.594-.281 1.219-.86v2.72Z"/><text x="53.65" y="464.54" fill="#D9B8FF" font-family="Helvetica" font-size="17" textLength="174">kubernetes_resource</text><path d="M8 478.549h237" style="stroke:#000d19;stroke-width:.5"/><text x="18" y="500.544" fill="#D9B8FF" font-family="sans-serif" font-size="14" font-weight="bold" textLength="46">labels</text><text x="64" y="500.544" fill="#D9B8FF" font-family="sans-serif" font-size="14" textLength="171">: dictionary[string, string]</text><text x="18" y="526.841" fill="#D9B8FF" font-family="sans-serif" font-size="14" font-weight="bold" textLength="90">namespace</text><text x="108" y="526.841" fill="#D9B8FF" font-family="sans-serif" font-size="14" textLength="48">: string</text><text x="18" y="553.138" fill="#D9B8FF" font-family="sans-serif" font-size="14" font-weight="bold" textLength="138">resource_version</text><text x="156" y="553.138" fill="#D9B8FF" font-family="sans-serif" font-size="14" textLength="48">: string</text><rect width="227" height="310.758" x="13" y="7" fill="#3D176E" rx="2.5" ry="2.5" style="stroke:#000d19;stroke-width:.5"/><circle cx="81.75" cy="26.895" r="11" fill="#ADD1B2" style="stroke:#181818;stroke-width:1"/><path d="M84.719 32.535q-.578.297-1.219.438-.64.156-1.344.156-2.5 0-3.828-1.64-1.312-1.657-1.312-4.782t1.312-4.781q1.328-1.656 3.828-1.656.703 0 1.344.156.656.156 1.219.453v2.719q-.625-.578-1.219-.844-.594-.281-1.219-.281-1.344 0-2.031 1.078-.688 1.062-.688 3.156 0 2.094.688 3.172.688 1.062 2.031 1.062.625 0 1.219-.265.594-.281 1.219-.86v2.72Z"/><text x="107.25" y="32.78" fill="#D9B8FF" font-family="Helvetica" font-size="17" textLength="71">resource</text><path d="M14 46.789h225" style="stroke:#000d19;stroke-width:.5"/><text x="24" y="68.784" fill="#D9B8FF" font-family="sans-serif" font-size="14" font-weight="bold" textLength="29">age</text><text x="53" y="68.784" fill="#D9B8FF" font-family="sans-serif" font-size="14" textLength="66">: duration</text><text x="24" y="95.081" fill="#D9B8FF" font-family="sans-serif" font-size="14" font-weight="bold" textLength="43">atime</text><text x="67" y="95.081" fill="#D9B8FF" font-family="sans-serif" font-size="14" textLength="70">: datetime</text><text x="24" y="121.378" fill="#D9B8FF" font-family="sans-serif" font-size="14" font-weight="bold" textLength="43">ctime</text><text x="67" y="121.378" fill="#D9B8FF" font-family="sans-serif" font-size="14" textLength="70">: datetime</text><text x="24" y="147.675" fill="#D9B8FF" font-family="sans-serif" font-size="14" font-weight="bold" textLength="14">id</text><text x="38" y="147.675" fill="#D9B8FF" font-family="sans-serif" font-size="14" textLength="48">: string</text><text x="24" y="173.972" fill="#D9B8FF" font-family="sans-serif" font-size="14" font-weight="bold" textLength="33">kind</text><text x="57" y="173.972" fill="#D9B8FF" font-family="sans-serif" font-size="14" textLength="48">: string</text><text x="24" y="200.269" fill="#D9B8FF" font-family="sans-serif" font-size="14" font-weight="bold" textLength="90">last_access</text><text x="114" y="200.269" fill="#D9B8FF" font-family="sans-serif" font-size="14" textLength="66">: duration</text><text x="24" y="226.565" fill="#D9B8FF" font-family="sans-serif" font-size="14" font-weight="bold" textLength="90">last_update</text><text x="114" y="226.565" fill="#D9B8FF" font-family="sans-serif" font-size="14" textLength="66">: duration</text><text x="24" y="252.862" fill="#D9B8FF" font-family="sans-serif" font-size="14" font-weight="bold" textLength="48">mtime</text><text x="72" y="252.862" fill="#D9B8FF" font-family="sans-serif" font-size="14" textLength="70">: datetime</text><text x="24" y="279.159" fill="#D9B8FF" font-family="sans-serif" font-size="14" font-weight="bold" textLength="43">name</text><text x="67" y="279.159" fill="#D9B8FF" font-family="sans-serif" font-size="14" textLength="48">: string</text><text x="24" y="305.456" fill="#D9B8FF" font-family="sans-serif" font-size="14" font-weight="bold" textLength="34">tags</text><text x="58" y="305.456" fill="#D9B8FF" font-family="sans-serif" font-size="14" textLength="171">: dictionary[string, string]</text><path fill="none" d="M126.5 586.56v99.75m-7-99.61 7-20 7 20h-14zm7-247.8v99.42m-7-99.41 7-20 7 20h-14z" style="stroke:#ffaf37;stroke-width:2"/></svg>
